X:412
T: Zaosong dajun xiajiangnan
N: C2030
O: China, Jiangsu Nantong
S: III, 467]
R: Haozi, Damai haozi]
M: 2/4
L: 1/16
K: Bb
c4c2b2 | g4b4
c2cbg2b2 | c4g4
c2cbg2b2 | c4g4
c2d2d2c2 | b4d4
c4b2cb | g4b4
c4b2cb | g4b4
g2b2f2g2 | d2c2d4
f4f2d2 | c2b2c4
cbgbc2b2 | c2b2c4
cbgbc2b2 | c2b2c4
f4f2d2 | c4b4
c4b2cb | g4b4
c4b2cb | c8

